X:27
T:Allistrum's March
R:march
H:See also #19, #26, #28
D:Niall & Cillian Vallely: Callan Bridge
Z:id:hn-march-27
M:6/8
L:1/8
K:Amix
Ecc edd | fdd cAG | Ecc edd | fdc A2G :|
|: FGE FDD | Ddc AGE | FGE FDD | Ddc A2G :|
<end>
<start>
